X:1
T:reel
M:2/2
Q:160
K:D
|: FAAB F2ED | FAAB EDDE | FAAB f3f- | fedf edBA :|
|: fBBa- a2g2 | fgfe gfeg | fBBa- a2g2 | fgfe f2fe |
   fBBa- a2g2 | fgfe gfeg | fgfd B2AF | FAAB E2DE :|